static/img/inter.svg

<svg width="450" height="308" viewBox="0 0 450 308" fill="none" xmlns="http://www.w3.org/2000/svg">
<g clip-path="url(#clip0)">
<path d="M13.5739 15.4545H3.73295V62H13.5739V15.4545ZM31.1705 41.8182C31.1932 37.3182 33.875 34.6818 37.7841 34.6818C41.6705 34.6818 44.0114 37.2273 43.9886 41.5V62H53.6705V39.7727C53.6705 31.6364 48.8977 26.6364 41.625 26.6364C36.4432 26.6364 32.6932 29.1818 31.125 33.25H30.7159V27.0909H21.4886V62H31.1705V41.8182ZM79.8693 27.0909H73.3011V18.7273H63.6193V27.0909H58.8466V34.3636H63.6193V52.5455C63.5739 59.3864 68.233 62.7727 75.2557 62.4773C77.7557 62.3864 79.5284 61.8864 80.5057 61.5682L78.983 54.3636C78.5057 54.4545 77.483 54.6818 76.5739 54.6818C74.642 54.6818 73.3011 53.9545 73.3011 51.2727V34.3636H79.8693V27.0909ZM101.71 62.6818C110.347 62.6818 116.165 58.4773 117.528 52L108.574 51.4091C107.597 54.0682 105.097 55.4545 101.869 55.4545C97.0284 55.4545 93.9602 52.25 93.9602 47.0455V47.0227H117.733V44.3636C117.733 32.5 110.551 26.6364 101.324 26.6364C91.0511 26.6364 84.392 33.9318 84.392 44.7045C84.392 55.7727 90.9602 62.6818 101.71 62.6818ZM93.9602 41.0227C94.1648 37.0455 97.1875 33.8636 101.483 33.8636C105.688 33.8636 108.597 36.8636 108.619 41.0227H93.9602ZM124.051 62H133.733V42.25C133.733 37.9545 136.869 35 141.142 35C142.483 35 144.324 35.2273 145.233 35.5227V26.9318C144.369 26.7273 143.165 26.5909 142.188 26.5909C138.278 26.5909 135.074 28.8636 133.801 33.1818H133.438V27.0909H124.051V62ZM165.233 62H185.119C195.574 62 201.142 56.5455 201.142 49.1364C201.142 42.25 196.21 38.0909 190.915 37.8409V37.3864C195.756 36.2955 199.324 32.8636 199.324 27.3864C199.324 20.4091 194.142 15.4545 183.869 15.4545H165.233V62ZM175.074 53.9545V41.5909H183.324C188.051 41.5909 190.983 44.3182 190.983 48.1591C190.983 51.6591 188.597 53.9545 183.097 53.9545H175.074ZM175.074 34.9318V23.4091H182.551C186.915 23.4091 189.392 25.6591 189.392 29.0227C189.392 32.7045 186.392 34.9318 182.369 34.9318H175.074ZM223.136 62.6818C233.727 62.6818 240.318 55.4318 240.318 44.6818C240.318 33.8636 233.727 26.6364 223.136 26.6364C212.545 26.6364 205.955 33.8636 205.955 44.6818C205.955 55.4318 212.545 62.6818 223.136 62.6818ZM223.182 55.1818C218.295 55.1818 215.795 50.7045 215.795 44.6136C215.795 38.5227 218.295 34.0227 223.182 34.0227C227.977 34.0227 230.477 38.5227 230.477 44.6136C230.477 50.7045 227.977 55.1818 223.182 55.1818ZM256.295 15.4545H246.614V62H256.295V15.4545ZM276.915 62.5682C282.551 62.5682 285.483 59.3182 286.824 56.4091H287.233V62H296.778V15.4545H287.119V32.9545H286.824C285.528 30.1136 282.733 26.6364 276.892 26.6364C269.233 26.6364 262.756 32.5909 262.756 44.5909C262.756 56.2727 268.96 62.5682 276.915 62.5682ZM279.983 54.8636C275.233 54.8636 272.642 50.6364 272.642 44.5455C272.642 38.5 275.188 34.3409 279.983 34.3409C284.688 34.3409 287.324 38.3182 287.324 44.5455C287.324 50.7727 284.642 54.8636 279.983 54.8636ZM12.7102 92.4545H4.27841V139H12.7102V92.4545ZM29.7045 118.545C29.7045 113.5 32.75 110.591 37.0909 110.591C41.3409 110.591 43.8864 113.386 43.8864 118.045V139H52.1136V116.773C52.1364 108.409 47.3636 103.636 40.1591 103.636C34.9318 103.636 31.3409 106.136 29.75 110.023H29.3409V104.091H21.4773V139H29.7045V118.545ZM77.9091 104.091H71.0227V95.7273H62.7955V104.091H57.8409V110.455H62.7955V129.864C62.75 136.432 67.5227 139.659 73.7045 139.477C76.0455 139.409 77.6591 138.955 78.5455 138.659L77.1591 132.227C76.7045 132.341 75.7727 132.545 74.75 132.545C72.6818 132.545 71.0227 131.818 71.0227 128.5V110.455H77.9091V104.091ZM99.8693 139.682C108.006 139.682 113.597 135.705 115.051 129.636L107.369 128.773C106.256 131.727 103.528 133.273 99.983 133.273C94.6648 133.273 91.142 129.773 91.0739 123.795H115.392V121.273C115.392 109.023 108.028 103.636 99.4375 103.636C89.4375 103.636 82.9148 110.977 82.9148 121.75C82.9148 132.705 89.3466 139.682 99.8693 139.682ZM91.0966 118.25C91.3466 113.795 94.642 110.045 99.5511 110.045C104.278 110.045 107.46 113.5 107.506 118.25H91.0966ZM122.352 139H130.58V118.477C130.58 114.045 133.92 110.909 138.443 110.909C139.83 110.909 141.557 111.159 142.261 111.386V103.818C141.511 103.682 140.216 103.591 139.307 103.591C135.307 103.591 131.966 105.864 130.693 109.909H130.33V104.091H122.352V139ZM189.261 105.25H197.375C197.216 97.3864 190.511 91.8182 180.602 91.8182C170.83 91.8182 163.489 97.3182 163.511 105.545C163.511 112.227 168.261 116.068 175.92 118.045L181.216 119.409C186.239 120.682 189.557 122.25 189.58 125.864C189.557 129.841 185.784 132.5 180.284 132.5C175.011 132.5 170.92 130.136 170.58 125.25H162.284C162.625 134.5 169.511 139.705 180.352 139.705C191.511 139.705 197.989 134.136 198.011 125.932C197.989 117.864 191.33 114.182 184.33 112.523L179.966 111.432C176.148 110.523 172.011 108.909 172.057 105.023C172.08 101.523 175.216 98.9545 180.489 98.9545C185.511 98.9545 188.83 101.295 189.261 105.25ZM220.619 139.682C228.756 139.682 234.347 135.705 235.801 129.636L228.119 128.773C227.006 131.727 224.278 133.273 220.733 133.273C215.415 133.273 211.892 129.773 211.824 123.795H236.142V121.273C236.142 109.023 228.778 103.636 220.188 103.636C210.188 103.636 203.665 110.977 203.665 121.75C203.665 132.705 210.097 139.682 220.619 139.682ZM211.847 118.25C212.097 113.795 215.392 110.045 220.301 110.045C225.028 110.045 228.21 113.5 228.256 118.25H211.847ZM243.102 139H251.33V117.773C251.33 113.477 254.193 110.568 257.739 110.568C261.216 110.568 263.602 112.909 263.602 116.5V139H271.67V117.227C271.67 113.295 274.011 110.568 277.989 110.568C281.307 110.568 283.943 112.523 283.943 116.841V139H292.193V115.568C292.193 107.773 287.693 103.636 281.284 103.636C276.216 103.636 272.352 106.136 270.807 110.023H270.443C269.102 106.068 265.716 103.636 261.011 103.636C256.33 103.636 252.83 106.045 251.375 110.023H250.966V104.091H243.102V139ZM300.54 139H308.767V104.091H300.54V139ZM304.676 99.1364C307.29 99.1364 309.426 97.1364 309.426 94.6818C309.426 92.2045 307.29 90.2045 304.676 90.2045C302.04 90.2045 299.903 92.2045 299.903 94.6818C299.903 97.1364 302.04 99.1364 304.676 99.1364ZM317.591 139H325.682V133.5H326.159C327.455 136.045 330.159 139.614 336.159 139.614C344.386 139.614 350.545 133.091 350.545 121.591C350.545 109.955 344.205 103.636 336.136 103.636C329.977 103.636 327.409 107.341 326.159 109.864H325.818V92.4545H317.591V139ZM325.659 121.545C325.659 114.773 328.568 110.386 333.864 110.386C339.341 110.386 342.159 115.045 342.159 121.545C342.159 128.091 339.295 132.864 333.864 132.864C328.614 132.864 325.659 128.318 325.659 121.545ZM372.767 139.682C382.994 139.682 389.494 132.477 389.494 121.682C389.494 110.864 382.994 103.636 372.767 103.636C362.54 103.636 356.04 110.864 356.04 121.682C356.04 132.477 362.54 139.682 372.767 139.682ZM372.812 133.091C367.153 133.091 364.381 128.045 364.381 121.659C364.381 115.273 367.153 110.159 372.812 110.159C378.381 110.159 381.153 115.273 381.153 121.659C381.153 128.045 378.381 133.091 372.812 133.091ZM404.705 92.4545H396.477V139H404.705V92.4545ZM426.119 139.614C432.119 139.614 434.824 136.045 436.119 133.5H436.619V139H444.71V92.4545H436.46V109.864H436.119C434.869 107.341 432.301 103.636 426.142 103.636C418.074 103.636 411.733 109.955 411.733 121.591C411.733 133.091 417.892 139.614 426.119 139.614ZM428.415 132.864C422.983 132.864 420.119 128.091 420.119 121.545C420.119 115.045 422.938 110.386 428.415 110.386C433.71 110.386 436.619 114.773 436.619 121.545C436.619 128.318 433.665 132.864 428.415 132.864ZM10.9602 169.455H5.32386V216H10.9602V169.455ZM26.8977 195C26.8977 188.909 30.6705 185.455 35.8068 185.455C40.7841 185.455 43.8068 188.705 43.8068 194.182V216H49.1705V193.818C49.1705 184.909 44.4205 180.636 37.3523 180.636C32.0795 180.636 28.8068 183 27.1705 186.545H26.7159V181.091H21.5341V216H26.8977V195ZM74.1534 181.091H66.6989V172.727H61.3352V181.091H56.0625V185.636H61.3352V207.455C61.3352 213.545 66.2443 216.455 70.7898 216.455C72.7898 216.455 74.0625 216.091 74.7898 215.818L73.6989 211C73.2443 211.091 72.517 211.273 71.3352 211.273C68.9716 211.273 66.6989 210.545 66.6989 206V185.636H74.1534V181.091ZM96.483 216.727C103.574 216.727 108.756 213.182 110.392 207.909L105.21 206.455C103.847 210.091 100.688 211.909 96.483 211.909C90.1875 211.909 85.8466 207.841 85.5966 200.364H110.938V198.091C110.938 185.091 103.21 180.636 95.9375 180.636C86.483 180.636 80.2102 188.091 80.2102 198.818C80.2102 209.545 86.392 216.727 96.483 216.727ZM85.5966 195.727C85.9602 190.295 89.8011 185.455 95.9375 185.455C101.756 185.455 105.483 189.818 105.483 195.727H85.5966ZM119.097 216H124.46V193.909C124.46 189.182 128.188 185.727 133.278 185.727C134.71 185.727 136.188 186 136.551 186.091V180.636C135.938 180.591 134.528 180.545 133.733 180.545C129.551 180.545 125.915 182.909 124.642 186.364H124.278V181.091H119.097V216ZM161.636 216H167.273V197.818H177.455C177.864 197.818 178.25 197.818 178.636 197.795L188.455 216H195L184.477 196.773C190.409 194.75 193.182 189.909 193.182 183.727C193.182 175.5 188.273 169.455 177.364 169.455H161.636V216ZM167.273 192.727V174.455H177.182C184.727 174.455 187.636 178.136 187.636 183.727C187.636 189.318 184.727 192.727 177.273 192.727H167.273ZM216.108 216.727C223.199 216.727 228.381 213.182 230.017 207.909L224.835 206.455C223.472 210.091 220.312 211.909 216.108 211.909C209.812 211.909 205.472 207.841 205.222 200.364H230.562V198.091C230.562 185.091 222.835 180.636 215.562 180.636C206.108 180.636 199.835 188.091 199.835 198.818C199.835 209.545 206.017 216.727 216.108 216.727ZM205.222 195.727C205.585 190.295 209.426 185.455 215.562 185.455C221.381 185.455 225.108 189.818 225.108 195.727H205.222ZM252.812 229.818C261.176 229.818 267.903 226 267.903 217V181.091H262.722V186.636H262.176C260.994 184.818 258.812 180.636 251.994 180.636C243.176 180.636 237.085 187.636 237.085 198.364C237.085 209.273 243.449 215.455 251.903 215.455C258.722 215.455 260.903 211.455 262.085 209.545H262.54V216.636C262.54 222.455 258.449 225.091 252.812 225.091C246.472 225.091 244.244 221.75 242.812 219.818L238.54 222.818C240.722 226.477 245.017 229.818 252.812 229.818ZM252.631 210.636C245.903 210.636 242.449 205.545 242.449 198.273C242.449 191.182 245.812 185.455 252.631 185.455C259.176 185.455 262.631 190.727 262.631 198.273C262.631 206 259.085 210.636 252.631 210.636ZM299.722 201.727C299.722 208.273 294.722 211.273 290.722 211.273C286.267 211.273 283.085 208 283.085 202.909V181.091H277.722V203.273C277.722 212.182 282.449 216.455 288.994 216.455C294.267 216.455 297.722 213.636 299.358 210.091H299.722V216H305.085V181.091H299.722V201.727ZM320.273 169.455H314.909V216H320.273V169.455ZM340.369 216.818C346.46 216.818 349.642 213.545 350.733 211.273H351.006V216H356.369V193C356.369 181.909 347.915 180.636 343.46 180.636C338.188 180.636 332.188 182.455 329.46 188.818L334.551 190.636C335.733 188.091 338.528 185.364 343.642 185.364C348.574 185.364 351.006 187.977 351.006 192.455V192.636C351.006 195.227 348.369 195 342.006 195.818C335.528 196.659 328.46 198.091 328.46 206.091C328.46 212.909 333.733 216.818 340.369 216.818ZM341.188 212C336.915 212 333.824 210.091 333.824 206.364C333.824 202.273 337.551 201 341.733 200.455C344.006 200.182 350.097 199.545 351.006 198.455V203.364C351.006 207.727 347.551 212 341.188 212ZM366.159 216H371.523V193.909C371.523 189.182 375.25 185.727 380.341 185.727C381.773 185.727 383.25 186 383.614 186.091V180.636C383 180.591 381.591 180.545 380.795 180.545C376.614 180.545 372.977 182.909 371.705 186.364H371.341V181.091H366.159V216ZM10.1193 246.455H5.86932V293H10.1193V246.455ZM25.6989 271.182C25.6989 265.091 29.6989 261.341 35.1989 261.341C40.5625 261.341 44.017 264.932 44.017 270.636V293H48.0625V270.386C48.0625 262.114 43.267 257.636 36.2216 257.636C31.108 257.636 27.5852 260 25.9489 263.568H25.5852V258.091H21.6534V293H25.6989V271.182ZM72.4659 258.091H65.0795V249.727H61.0114V258.091H55.8068V261.614H61.0114V284.841C61.0114 290.545 65.5114 293.523 69.9886 293.523C71.6705 293.523 72.8068 293.205 73.5795 292.909L72.7159 289.25C72.1477 289.409 71.4205 289.568 70.3523 289.568C67.6023 289.568 65.0795 288.273 65.0795 283.886V261.614H72.4659V258.091ZM95.392 293.727C102.392 293.727 107.097 289.932 108.688 285.545L104.847 284.295C103.506 287.432 100.347 290.023 95.392 290.023C88.2557 290.023 83.733 284.818 83.5511 276.75H109.551V274.75C109.551 263.091 102.347 257.614 94.7784 257.614C85.733 257.614 79.483 265.182 79.483 275.75C79.483 286.341 85.6193 293.727 95.392 293.727ZM83.5739 273.182C84.0057 266.682 88.392 261.295 94.7784 261.295C101.028 261.295 105.415 266.455 105.415 273.182H83.5739ZM118.466 293H122.511V270.455C122.511 265.273 126.489 261.523 131.943 261.523C133.011 261.523 134.011 261.705 134.375 261.75V257.636C133.83 257.614 132.898 257.568 132.239 257.568C127.852 257.568 124.102 259.932 122.693 263.455H122.398V258.091H118.466V293ZM160.119 293H186.551V289.182H164.369V246.455H160.119V293ZM195.324 293H199.392V258.091H195.324V293ZM197.392 252.091C199.051 252.091 200.438 250.773 200.438 249.182C200.438 247.591 199.051 246.273 197.392 246.273C195.733 246.273 194.369 247.591 194.369 249.182C194.369 250.773 195.733 252.091 197.392 252.091ZM223.409 306.818C231.682 306.818 237.818 302.773 237.818 293.909V258.091H233.864V264.75H233.455C232.023 261.614 229.136 257.614 222.727 257.614C214.091 257.614 208.295 264.841 208.295 275.455C208.295 286.159 214.295 292.636 222.659 292.636C228.932 292.636 232 289 233.386 285.795H233.75V293.659C233.75 300.159 229.591 303.182 223.409 303.182C217.432 303.182 214.568 300.295 213.091 297.636L209.773 299.818C211.818 303.818 216.273 306.818 223.409 306.818ZM223.136 288.932C216.205 288.932 212.364 283.386 212.364 275.386C212.364 267.523 216.136 261.295 223.136 261.295C229.977 261.295 233.818 267.205 233.818 275.386C233.818 283.818 229.864 288.932 223.136 288.932ZM252.574 271.182C252.574 265.091 256.665 261.341 262.256 261.341C267.665 261.341 271.119 264.886 271.119 270.636V293H275.188V270.386C275.188 262.068 270.369 257.636 263.278 257.636C258.006 257.636 254.574 259.955 252.938 263.568H252.574V246.455H248.528V293H252.574V271.182ZM299.591 258.091H292.205V249.727H288.136V258.091H282.932V261.614H288.136V284.841C288.136 290.545 292.636 293.523 297.114 293.523C298.795 293.523 299.932 293.205 300.705 292.909L299.841 289.25C299.273 289.409 298.545 289.568 297.477 289.568C294.727 289.568 292.205 288.273 292.205 283.886V261.614H299.591V258.091Z" fill="#282828"/>
</g>
<defs>
<clipPath id="clip0">
<rect width="450" height="308" fill="white"/>
</clipPath>
</defs>
</svg>

<svg width="450" height="308" fill="none" xmlns="http://www.w3.org/2000/svg"><g clip-path="url(#a)"><path d="M13.574 15.454H3.733V62h9.84V15.454ZM31.17 41.819c.022-4.5 2.704-7.136 6.613-7.136 3.886 0 6.227 2.545 6.205 6.818V62h9.681V39.773c0-8.137-4.772-13.137-12.045-13.137-5.182 0-8.932 2.546-10.5 6.614h-.41v-6.16H21.49V62h9.681V41.818Zm48.698-14.727h-6.568v-8.364H63.62v8.364h-4.772v7.273h4.772v18.181c-.045 6.841 4.614 10.228 11.637 9.932 2.5-.09 4.272-.59 5.25-.909l-1.523-7.204c-.477.09-1.5.318-2.41.318-1.931 0-3.272-.727-3.272-3.41V34.365h6.568V27.09Zm21.841 35.59c8.637 0 14.455-4.204 15.818-10.681l-8.954-.59c-.977 2.658-3.477 4.045-6.705 4.045-4.84 0-7.909-3.205-7.909-8.41v-.022h23.773v-2.66c0-11.863-7.182-17.727-16.409-17.727-10.273 0-16.932 7.296-16.932 18.069 0 11.068 6.568 17.977 17.318 17.977Zm-7.75-21.658c.205-3.978 3.228-7.16 7.523-7.16 4.205 0 7.114 3 7.136 7.16H93.96ZM124.051 62h9.682V42.25c0-4.295 3.136-7.25 7.409-7.25 1.341 0 3.182.227 4.091.523v-8.591c-.864-.205-2.068-.341-3.045-.341-3.91 0-7.114 2.273-8.387 6.59h-.363v-6.09h-9.387V62Zm41.182 0h19.886c10.455 0 16.023-5.455 16.023-12.864 0-6.886-4.932-11.045-10.227-11.295v-.455c4.841-1.09 8.409-4.522 8.409-10 0-6.977-5.182-11.931-15.455-11.931h-18.636V62Zm9.841-8.045V41.59h8.25c4.727 0 7.659 2.727 7.659 6.568 0 3.5-2.386 5.796-7.886 5.796h-8.023Zm0-19.023V23.409h7.477c4.364 0 6.841 2.25 6.841 5.614 0 3.682-3 5.909-7.023 5.909h-7.295Zm48.062 27.75c10.591 0 17.182-7.25 17.182-18 0-10.818-6.591-18.046-17.182-18.046-10.591 0-17.181 7.228-17.181 18.046 0 10.75 6.59 18 17.181 18Zm.046-7.5c-4.887 0-7.387-4.477-7.387-10.568 0-6.091 2.5-10.591 7.387-10.591 4.795 0 7.295 4.5 7.295 10.59 0 6.092-2.5 10.569-7.295 10.569Zm33.113-39.727h-9.681V62h9.681V15.454Zm20.62 47.113c5.636 0 8.568-3.25 9.909-6.159h.409V62h9.545V15.454h-9.659v17.5h-.295c-1.296-2.84-4.091-6.318-9.932-6.318-7.659 0-14.136 5.955-14.136 17.955 0 11.682 6.204 17.977 14.159 17.977Zm3.068-7.704c-4.75 0-7.341-4.228-7.341-10.319 0-6.045 2.546-10.204 7.341-10.204 4.705 0 7.341 3.977 7.341 10.204 0 6.228-2.682 10.319-7.341 10.319ZM12.71 92.454H4.278V139h8.432V92.454Zm16.994 26.091c0-5.045 3.046-7.954 7.387-7.954 4.25 0 6.795 2.795 6.795 7.454V139h8.228v-22.227c.022-8.364-4.75-13.137-11.955-13.137-5.227 0-8.818 2.5-10.409 6.387h-.41v-5.932h-7.863V139h8.227v-20.455Zm48.205-14.454h-6.886v-8.364h-8.227v8.364H57.84v6.364h4.954v19.409c-.045 6.568 4.728 9.795 10.91 9.613 2.34-.068 3.954-.522 4.84-.818l-1.386-6.432c-.455.114-1.386.318-2.409.318-2.068 0-3.727-.727-3.727-4.045v-18.045h6.886v-6.364Zm21.96 35.591c8.137 0 13.728-3.977 15.182-10.046l-7.682-.863c-1.113 2.954-3.841 4.5-7.386 4.5-5.318 0-8.841-3.5-8.91-9.478h24.319v-2.522c0-12.25-7.364-17.637-15.954-17.637-10 0-16.523 7.341-16.523 18.114 0 10.955 6.432 17.932 16.954 17.932Zm-8.772-21.432c.25-4.455 3.545-8.205 8.454-8.205 4.727 0 7.909 3.455 7.955 8.205h-16.41ZM122.352 139h8.228v-20.523c0-4.432 3.34-7.568 7.863-7.568 1.387 0 3.114.25 3.818.477v-7.568c-.75-.136-2.045-.227-2.954-.227-4 0-7.341 2.273-8.614 6.318h-.363v-5.818h-7.978V139Zm66.909-33.75h8.114c-.159-7.864-6.864-13.432-16.773-13.432-9.772 0-17.113 5.5-17.091 13.727 0 6.682 4.75 10.523 12.409 12.5l5.296 1.364c5.023 1.273 8.341 2.841 8.364 6.455-.023 3.977-3.796 6.636-9.296 6.636-5.273 0-9.364-2.364-9.704-7.25h-8.296c.341 9.25 7.227 14.455 18.068 14.455 11.159 0 17.637-5.569 17.659-13.773-.022-8.068-6.681-11.75-13.681-13.409l-4.364-1.091c-3.818-.909-7.955-2.523-7.909-6.409.023-3.5 3.159-6.069 8.432-6.069 5.022 0 8.341 2.341 8.772 6.296Zm31.358 34.432c8.137 0 13.728-3.977 15.182-10.046l-7.682-.863c-1.113 2.954-3.841 4.5-7.386 4.5-5.318 0-8.841-3.5-8.909-9.478h24.318v-2.522c0-12.25-7.364-17.637-15.954-17.637-10 0-16.523 7.341-16.523 18.114 0 10.955 6.432 17.932 16.954 17.932Zm-8.772-21.432c.25-4.455 3.545-8.205 8.454-8.205 4.727 0 7.909 3.455 7.955 8.205h-16.409ZM243.102 139h8.228v-21.227c0-4.296 2.863-7.205 6.409-7.205 3.477 0 5.863 2.341 5.863 5.932V139h8.068v-21.773c0-3.932 2.341-6.659 6.319-6.659 3.318 0 5.954 1.955 5.954 6.273V139h8.25v-23.432c0-7.795-4.5-11.932-10.909-11.932-5.068 0-8.932 2.5-10.477 6.387h-.364c-1.341-3.955-4.727-6.387-9.432-6.387-4.681 0-8.181 2.409-9.636 6.387h-.409v-5.932h-7.864V139Zm57.438 0h8.227v-34.909h-8.227V139Zm4.136-39.864c2.614 0 4.75-2 4.75-4.454 0-2.478-2.136-4.478-4.75-4.478-2.636 0-4.773 2-4.773 4.478 0 2.454 2.137 4.454 4.773 4.454ZM317.591 139h8.091v-5.5h.477c1.296 2.545 4 6.114 10 6.114 8.227 0 14.386-6.523 14.386-18.023 0-11.636-6.34-17.955-14.409-17.955-6.159 0-8.727 3.705-9.977 6.228h-.341v-17.41h-8.227V139Zm8.068-17.455c0-6.772 2.909-11.159 8.205-11.159 5.477 0 8.295 4.659 8.295 11.159 0 6.546-2.864 11.319-8.295 11.319-5.25 0-8.205-4.546-8.205-11.319Zm47.108 18.137c10.227 0 16.727-7.205 16.727-18 0-10.818-6.5-18.046-16.727-18.046s-16.727 7.228-16.727 18.046c0 10.795 6.5 18 16.727 18Zm.045-6.591c-5.659 0-8.431-5.046-8.431-11.432s2.772-11.5 8.431-11.5c5.569 0 8.341 5.114 8.341 11.5s-2.772 11.432-8.341 11.432Zm31.893-40.637h-8.228V139h8.228V92.454Zm21.414 47.16c6 0 8.705-3.569 10-6.114h.5v5.5h8.091V92.454h-8.25v17.41h-.341c-1.25-2.523-3.818-6.228-9.977-6.228-8.068 0-14.409 6.319-14.409 17.955 0 11.5 6.159 18.023 14.386 18.023Zm2.296-6.75c-5.432 0-8.296-4.773-8.296-11.319 0-6.5 2.819-11.159 8.296-11.159 5.295 0 8.204 4.387 8.204 11.159 0 6.773-2.954 11.319-8.204 11.319ZM10.96 169.455H5.324V216h5.636v-46.545ZM26.898 195c0-6.091 3.773-9.545 8.909-9.545 4.977 0 8 3.25 8 8.727V216h5.363v-22.182c0-8.909-4.75-13.182-11.818-13.182-5.272 0-8.545 2.364-10.181 5.909h-.455v-5.454h-5.182V216h5.364v-21Zm47.255-13.909H66.7v-8.364h-5.364v8.364h-5.273v4.545h5.273v21.819c0 6.09 4.91 9 9.455 9 2 0 3.272-.364 4-.637L73.699 211c-.455.091-1.182.273-2.364.273-2.363 0-4.636-.728-4.636-5.273v-20.364h7.454v-4.545Zm22.33 35.636c7.091 0 12.273-3.545 13.909-8.818l-5.182-1.454c-1.363 3.636-4.522 5.454-8.727 5.454-6.296 0-10.636-4.068-10.886-11.545h25.341v-2.273c0-13-7.728-17.455-15-17.455-9.455 0-15.728 7.455-15.728 18.182 0 10.727 6.182 17.909 16.273 17.909Zm-10.886-21c.363-5.432 4.204-10.272 10.34-10.272 5.819 0 9.546 4.363 9.546 10.272H85.597Zm33.5 20.273h5.363v-22.091c0-4.727 3.728-8.182 8.818-8.182 1.432 0 2.91.273 3.273.364v-5.455a51.999 51.999 0 0 0-2.818-.091c-4.182 0-7.818 2.364-9.091 5.819h-.364v-5.273h-5.181V216Zm42.539 0h5.637v-18.182h10.182c.409 0 .795 0 1.181-.023L188.455 216H195l-10.523-19.227c5.932-2.023 8.705-6.864 8.705-13.046 0-8.227-4.909-14.272-15.818-14.272h-15.728V216Zm5.637-23.273v-18.272h9.909c7.545 0 10.454 3.681 10.454 9.272s-2.909 9-10.363 9h-10Zm48.835 24c7.091 0 12.273-3.545 13.909-8.818l-5.182-1.454c-1.363 3.636-4.523 5.454-8.727 5.454-6.296 0-10.636-4.068-10.886-11.545h25.34v-2.273c0-13-7.727-17.455-15-17.455-9.454 0-15.727 7.455-15.727 18.182 0 10.727 6.182 17.909 16.273 17.909Zm-10.886-21c.363-5.432 4.204-10.272 10.34-10.272 5.819 0 9.546 4.363 9.546 10.272h-19.886Zm47.59 34.091c8.364 0 15.091-3.818 15.091-12.818v-35.909h-5.181v5.545h-.546c-1.182-1.818-3.364-6-10.182-6-8.818 0-14.909 7-14.909 17.728 0 10.909 6.364 17.091 14.818 17.091 6.819 0 9-4 10.182-5.91h.455v7.091c0 5.819-4.091 8.455-9.728 8.455-6.34 0-8.568-3.341-10-5.273l-4.272 3c2.182 3.659 6.477 7 14.272 7Zm-.181-19.182c-6.728 0-10.182-5.091-10.182-12.363 0-7.091 3.363-12.818 10.182-12.818 6.545 0 10 5.272 10 12.818 0 7.727-3.546 12.363-10 12.363Zm47.091-8.909c0 6.546-5 9.546-9 9.546-4.455 0-7.637-3.273-7.637-8.364v-21.818h-5.363v22.182c0 8.909 4.727 13.182 11.272 13.182 5.273 0 8.728-2.819 10.364-6.364h.364V216h5.363v-34.909h-5.363v20.636Zm20.551-32.272h-5.364V216h5.364v-46.545Zm20.096 47.363c6.091 0 9.273-3.273 10.364-5.545h.273V216h5.363v-23c0-11.091-8.454-12.364-12.909-12.364-5.272 0-11.272 1.819-14 8.182l5.091 1.818c1.182-2.545 3.977-5.272 9.091-5.272 4.932 0 7.364 2.613 7.364 7.091v.181c0 2.591-2.637 2.364-9 3.182-6.478.841-13.546 2.273-13.546 10.273 0 6.818 5.273 10.727 11.909 10.727Zm.819-4.818c-4.273 0-7.364-1.909-7.364-5.636 0-4.091 3.727-5.364 7.909-5.909 2.273-.273 8.364-.91 9.273-2v4.909c0 4.363-3.455 8.636-9.818 8.636Zm24.971 4h5.364v-22.091c0-4.727 3.727-8.182 8.818-8.182 1.432 0 2.909.273 3.273.364v-5.455a52.038 52.038 0 0 0-2.819-.091c-4.181 0-7.818 2.364-9.09 5.819h-.364v-5.273h-5.182V216Zm-356.04 30.455H5.87V293h4.25v-46.545Zm15.58 24.727c0-6.091 4-9.841 9.5-9.841 5.364 0 8.818 3.591 8.818 9.295V293h4.045v-22.614c0-8.272-4.795-12.75-11.84-12.75-5.114 0-8.637 2.364-10.273 5.932h-.364v-5.477h-3.932V293H25.7v-21.818Zm46.767-13.091H65.08v-8.364H61.01v8.364h-5.204v3.523h5.204v23.227c0 5.704 4.5 8.682 8.978 8.682 1.681 0 2.818-.318 3.59-.614l-.863-3.659a8.31 8.31 0 0 1-2.364.318c-2.75 0-5.273-1.295-5.273-5.682v-22.272h7.387v-3.523Zm22.926 35.636c7 0 11.705-3.795 13.296-8.182l-3.841-1.25c-1.341 3.137-4.5 5.728-9.455 5.728-7.136 0-11.659-5.205-11.84-13.273h25.999v-2c0-11.659-7.204-17.136-14.773-17.136-9.045 0-15.295 7.568-15.295 18.136 0 10.591 6.136 17.977 15.909 17.977Zm-11.818-20.545c.432-6.5 4.818-11.887 11.204-11.887 6.25 0 10.637 5.16 10.637 11.887H83.574ZM118.466 293h4.045v-22.545c0-5.182 3.978-8.932 9.432-8.932 1.068 0 2.068.182 2.432.227v-4.114c-.545-.022-1.477-.068-2.136-.068-4.387 0-8.137 2.364-9.546 5.887h-.295v-5.364h-3.932V293Zm41.653 0h26.432v-3.818h-22.182v-42.727h-4.25V293Zm35.205 0h4.068v-34.909h-4.068V293Zm2.068-40.909c1.659 0 3.046-1.318 3.046-2.909 0-1.591-1.387-2.909-3.046-2.909-1.659 0-3.023 1.318-3.023 2.909 0 1.591 1.364 2.909 3.023 2.909Zm26.017 54.727c8.273 0 14.409-4.045 14.409-12.909v-35.818h-3.954v6.659h-.409c-1.432-3.136-4.319-7.136-10.728-7.136-8.636 0-14.432 7.227-14.432 17.841 0 10.704 6 17.181 14.364 17.181 6.273 0 9.341-3.636 10.727-6.841h.364v7.864c0 6.5-4.159 9.523-10.341 9.523-5.977 0-8.841-2.887-10.318-5.546l-3.318 2.182c2.045 4 6.5 7 13.636 7Zm-.273-17.886c-6.931 0-10.772-5.546-10.772-13.546 0-7.863 3.772-14.091 10.772-14.091 6.841 0 10.682 5.91 10.682 14.091 0 8.432-3.954 13.546-10.682 13.546Zm29.438-17.75c0-6.091 4.091-9.841 9.682-9.841 5.409 0 8.863 3.545 8.863 9.295V293h4.069v-22.614c0-8.318-4.819-12.75-11.91-12.75-5.272 0-8.704 2.319-10.34 5.932h-.364v-17.113h-4.046V293h4.046v-21.818Zm47.017-13.091h-7.386v-8.364h-4.069v8.364h-5.204v3.523h5.204v23.227c0 5.704 4.5 8.682 8.978 8.682 1.681 0 2.818-.318 3.591-.614l-.864-3.659a8.313 8.313 0 0 1-2.364.318c-2.75 0-5.272-1.295-5.272-5.682v-22.272h7.386v-3.523Z" fill="#282828"/></g><defs><clipPath id="a"><path fill="#fff" d="M0 0h450v308H0z"/></clipPath></defs></svg>
